X:95
T: Gan zi shu
N: C0119
O: China, Hubei, Hefeng
S: I, 470]
N: Das Maedchen muss vor der Hochzeit zwei bis drei Tage lang
N: solche Lieder singen. Weinend, !), um sich damit fuer die
N: Erziehung, ggf. Ausbildung) bei ihren Eltern zu bedanken.
R: Xiaodiao, Fengsuge, shijiemeige. Songjia]
M: 2/4
L: 1/16
K: G
d2B2d2B2 | e3fe4 | d2efe2dB | BdBAG2A2 | B8
d2BAd2B2 | d2B2A2G2 | E2E4G2 | A3dB2A2 | G2EEA2G2 | E8

